src/img/icons/phone.svg

<svg width="32" height="32" viewBox="0 0 32 32" fill="none" xmlns="http://www.w3.org/2000/svg">
<path d="M26.4516 28C23.8959 28 21.2842 27.3727 18.6167 26.1181C15.9492 24.8635 13.4735 23.092 11.1898 20.8035C8.90577 18.5153 7.13647 16.0396 5.88188 13.3766C4.62729 10.7135 4 8.10412 4 5.54835C4 5.106 4.14624 4.73741 4.43871 4.44259C4.73094 4.14753 5.09635 4 5.53494 4H9.75506C10.1193 4 10.4313 4.11871 10.6911 4.35612C10.9506 4.59353 11.1272 4.896 11.2208 5.26353L12.0516 9.16988C12.1029 9.53576 12.0912 9.85953 12.0164 10.1412C11.9415 10.4228 11.8021 10.6596 11.5981 10.8516L8.29035 14.0722C8.88541 15.1132 9.52871 16.0835 10.2202 16.9833C10.912 17.8831 11.6604 18.7327 12.4653 19.5322C13.3098 20.3925 14.2081 21.1819 15.1604 21.9005C16.1124 22.6191 17.134 23.2769 18.2253 23.8741L21.4173 20.6119C21.6476 20.3627 21.9124 20.1928 22.2114 20.1022C22.5105 20.0119 22.8219 19.9902 23.1456 20.0373L26.7365 20.8064C27.1087 20.8944 27.4124 21.0826 27.6474 21.3711C27.8825 21.6593 28 21.986 28 22.3512V26.4651C28 26.9036 27.8525 27.2691 27.5574 27.5613C27.2626 27.8538 26.894 28 26.4516 28ZM7.42247 12.4364L10.2047 9.74835C10.2438 9.71212 10.2701 9.66235 10.2838 9.59906C10.2974 9.53577 10.2981 9.47694 10.2859 9.42259L9.56729 5.99094C9.55529 5.91847 9.52518 5.86412 9.47694 5.82788C9.42871 5.79188 9.36835 5.77388 9.29588 5.77388H5.97118C5.91682 5.77388 5.87153 5.79188 5.83529 5.82788C5.79906 5.86412 5.78094 5.90941 5.78094 5.96377C5.81835 6.93812 5.97235 7.96047 6.24294 9.03082C6.51353 10.1012 6.90671 11.2364 7.42247 12.4364ZM19.9004 24.7187C20.8554 25.1801 21.8848 25.5374 22.9886 25.7906C24.0924 26.0435 25.1082 26.1869 26.0362 26.2208C26.0906 26.2208 26.1359 26.2027 26.1721 26.1665C26.2081 26.1302 26.2261 26.0849 26.2261 26.0306V22.7313C26.2261 22.6588 26.2081 22.5985 26.1721 22.5502C26.1359 22.502 26.0815 22.4719 26.0091 22.4599L22.8869 21.8189C22.8326 21.8069 22.7851 21.8078 22.7444 21.8214C22.7036 21.8348 22.6607 21.8612 22.6155 21.9005L19.9004 24.7187Z" fill="#131212"/>
</svg>

<svg xmlns="http://www.w3.org/2000/svg" viewBox="0 0 32 32">
  <path fill="currentColor" d="M26.452 28c-2.556 0-5.168-.627-7.835-1.882-2.668-1.255-5.144-3.026-7.427-5.314-2.284-2.289-4.054-4.764-5.308-7.427C4.627 10.713 4 8.104 4 5.548c0-.442.146-.81.439-1.105A1.48 1.48 0 0 1 5.535 4h4.22c.364 0 .676.119.936.356.26.238.436.54.53.908l.83 3.906c.052.366.04.69-.035.971a1.475 1.475 0 0 1-.418.71L8.29 14.073a25.697 25.697 0 0 0 1.93 2.911c.692.9 1.44 1.75 2.245 2.55.845.86 1.743 1.649 2.695 2.367a24.988 24.988 0 0 0 3.065 1.974l3.192-3.262c.23-.25.495-.42.794-.51.3-.09.61-.112.935-.065l3.59.77c.373.087.676.276.911.564.236.288.353.615.353.98v4.114c0 .439-.148.804-.443 1.096-.294.293-.663.439-1.105.439ZM7.422 12.436l2.783-2.688a.277.277 0 0 0 .079-.149.408.408 0 0 0 .002-.176L9.567 5.99a.244.244 0 0 0-.09-.163.294.294 0 0 0-.181-.054H5.97a.185.185 0 0 0-.19.19c.037.974.191 1.996.462 3.067.27 1.07.664 2.205 1.18 3.405ZM19.9 24.72c.955.461 1.985.818 3.089 1.072 1.103.253 2.12.396 3.047.43a.184.184 0 0 0 .19-.19v-3.3a.294.294 0 0 0-.054-.18.244.244 0 0 0-.163-.091l-3.122-.641a.266.266 0 0 0-.143.002.386.386 0 0 0-.128.08L19.9 24.719Z"/>
</svg>
